X:707
T:Anglais
T:efter Alfred Petersson, Nättraby, Blekinge (SvL, Band 18, nr 315)
O:Petersson, Nättraby
C:Alfred Petersson
S:Svenska Låtar Blekinge nr 315
N:Svenska Låtar, Band 18 nr 315
R:Anglais
M:2/4
L:1/16
Q:1/4=80
Z:Konverterad till abc-format av  Olle Paulsson 05-01-03
K:C
A^GAB  c2BA|(^GB)e^g (gb)eg|a2AB c2BA|(^GB)e^g a4:|
|:c2=G2 e2dc|(Bd)ag gfdB|c2G2 e2dc|(Bd)ag c4:|

(:musicend:)

(:music:)
